packages/nodes-base/nodes/Form/form.svg

<svg width="46" height="40" viewBox="0 0 46 40" fill="none" xmlns="http://www.w3.org/2000/svg">
<path fill-rule="evenodd" clip-rule="evenodd" d="M34.9784 37.7321C34.9784 38.1465 34.8139 38.5439 34.5207 38.8369C34.2278 39.1301 33.8303 39.2946 33.4159 39.2946H6.25967C5.84529 39.2946 5.44784 39.13 5.15484 38.8369C4.86171 38.544 4.69717 38.1465 4.69717 37.7321V9.60712C4.69668 9.20212 4.85359 8.81282 5.13467 8.52122L11.4393 1.98994V7.33372H8.21267C7.79405 7.33372 7.40717 7.55702 7.19788 7.91962C6.98841 8.28222 6.98841 8.72882 7.19788 9.09152C7.40719 9.45412 7.79409 9.67742 8.21267 9.67742H12.6422C12.9531 9.67742 13.2511 9.55382 13.4709 9.33412C13.6906 9.11442 13.8141 8.81642 13.8141 8.50552V0.232178H33.4158C33.8302 0.232178 34.2276 0.396729 34.5206 0.68985C34.8138 0.982807 34.9783 1.38027 34.9783 1.79468L34.9783 12.1222L32.1177 14.9829L23.8657 23.2583C23.5924 23.5323 23.3622 23.7641 23.1373 23.9905C22.8466 24.2831 22.5649 24.5666 22.2112 24.9205L21.8753 25.2565C21.5818 25.55 21.387 25.9276 21.3177 26.3368L20.3004 31.9218C20.1924 32.5604 20.0852 33.0006 20.5114 33.3398C20.9137 33.6602 21.4119 33.5143 22.0504 33.4062L27.4592 32.4783C27.8679 32.4091 28.2451 32.2147 28.5384 31.9218L34.9784 25.4933L34.9784 37.7321ZM10.9472 16.4667C10.9493 16.7769 11.0733 17.0738 11.2927 17.293C11.5119 17.5124 11.8088 17.6364 12.119 17.6385H25.2819C25.7005 17.6385 26.0874 17.4152 26.2967 17.0526C26.5061 16.69 26.5061 16.2434 26.2967 15.8808C26.0873 15.5181 25.7004 15.2948 25.2819 15.2948H12.119C11.8082 15.2948 11.5102 15.4184 11.2904 15.6381C11.0707 15.8578 10.9472 16.1559 10.9472 16.4667ZM18.2421 31.2325C18.2421 30.9216 18.1186 30.6236 17.8988 30.4039C17.6791 30.1842 17.3811 30.0606 17.0702 30.0606H12.119C11.7004 30.0606 11.3135 30.2839 11.1042 30.6465C10.8948 31.0092 10.8948 31.4558 11.1042 31.8184C11.3135 32.181 11.7004 32.4043 12.119 32.4043H17.0702C17.3811 32.4043 17.6791 32.2808 17.8988 32.0611C18.1185 31.8413 18.2421 31.5434 18.2421 31.2325ZM19.1015 23.8417C19.1015 23.5308 18.9779 23.2328 18.7582 23.013C18.5385 22.7933 18.2404 22.6698 17.9296 22.6698H12.1188C11.7002 22.6698 11.3133 22.8931 11.104 23.2557C10.8946 23.6183 10.8946 24.065 11.104 24.4276C11.3133 24.7902 11.7002 25.0135 12.1188 25.0135H17.9296C18.2409 25.0156 18.5402 24.8927 18.7604 24.6725C18.9807 24.4523 19.1036 24.1531 19.1015 23.8417Z" fill="#00B7BC"/>
<path d="M33.5319 16.3971L37.821 12.108L41.5789 15.8189L43.196 14.2017L45.4539 16.4595C45.6718 16.6772 45.7948 16.9719 45.7971 17.2799C45.7951 17.5903 45.6718 17.8875 45.4534 18.1081L38.6488 24.9047C38.4318 25.1284 38.1322 25.2527 37.8206 25.2485C37.5094 25.2509 37.2106 25.1267 36.9925 24.9047C36.7749 24.684 36.653 24.3865 36.653 24.0766C36.653 23.7667 36.7749 23.4692 36.9925 23.2485L42.9692 17.2797L41.6567 15.9672L40.2739 17.3813L27.1255 30.5063L22.5084 31.2876L23.2897 26.6705L23.6256 26.3345L26.1881 28.8892C26.3784 29.0902 26.6362 29.211 26.9096 29.2306C26.9449 29.2331 26.9805 29.2339 27.0162 29.233C27.3279 29.238 27.6279 29.1137 27.8444 28.8892C28.062 28.6685 28.1839 28.371 28.1839 28.0611C28.1839 27.7512 28.062 27.4537 27.8444 27.233L25.2819 24.6705L33.5319 16.3971Z" fill="#00B7BC"/>
<path d="M44.7359 12.2409C44.7359 12.6536 44.5725 13.0496 44.2815 13.3424L43.3596 14.2564L39.508 10.4283L40.4377 9.49863C40.7305 9.20763 41.1265 9.04422 41.5393 9.04422C41.9521 9.04422 42.3481 9.20763 42.6409 9.49863L44.2815 11.1393C44.5725 11.4321 44.7359 11.8281 44.7359 12.2409Z" fill="#00B7BC"/>
</svg>

<svg xmlns="http://www.w3.org/2000/svg" width="46" height="40" fill="none"><path fill="#00B7BC" fill-rule="evenodd" d="M34.978 37.732a1.56 1.56 0 0 1-1.562 1.563H6.26a1.56 1.56 0 0 1-1.563-1.563V9.607c0-.405.157-.794.438-1.086l6.304-6.531v5.344H8.213a1.172 1.172 0 1 0 0 2.343h4.43a1.17 1.17 0 0 0 1.171-1.171V.232h19.602a1.56 1.56 0 0 1 1.562 1.563v10.327l-2.86 2.86-8.252 8.276a413.006 413.006 0 0 1-1.654 1.662l-.337.337a2 2 0 0 0-.557 1.08L20.3 31.922c-.108.638-.215 1.079.211 1.418.403.32.9.174 1.54.066l5.408-.928a2 2 0 0 0 1.08-.556l6.44-6.429zm-24.03-21.265a1.18 1.18 0 0 0 1.171 1.172h13.163a1.172 1.172 0 1 0 0-2.344H12.119a1.17 1.17 0 0 0-1.172 1.172m7.294 14.766a1.17 1.17 0 0 0-1.172-1.172H12.12a1.172 1.172 0 1 0 0 2.343h4.951a1.17 1.17 0 0 0 1.172-1.172m.86-7.391a1.17 1.17 0 0 0-1.172-1.172h-5.811a1.172 1.172 0 1 0 0 2.343h5.81a1.164 1.164 0 0 0 1.173-1.171" clip-rule="evenodd"/><path fill="#00B7BC" d="m33.532 16.397 4.289-4.289 3.758 3.71 1.617-1.616 2.258 2.257c.218.218.34.513.343.82-.002.311-.125.608-.344.83l-6.804 6.796a1.13 1.13 0 0 1-.828.343 1.15 1.15 0 0 1-.828-.343 1.18 1.18 0 0 1 0-1.657l5.976-5.968-1.312-1.313-1.383 1.414-13.149 13.125-4.617.782.782-4.617.336-.337 2.562 2.555a1.1 1.1 0 0 0 .828.344c.312.005.612-.12.828-.344a1.18 1.18 0 0 0 0-1.656l-2.562-2.562zM44.736 12.24c0 .414-.163.81-.454 1.102l-.922.914-3.852-3.828.93-.93a1.563 1.563 0 0 1 2.203 0l1.64 1.641c.291.293.455.69.455 1.102"/></svg>
